svg/700/outlined/healing.svg

<svg xmlns="http://www.w3.org/2000/svg" width="48" height="48" viewBox="0 -960 960 960"><path d="M483-241 327-87q-27.64 29-67.82 29Q219-58 192-87L87-192q-29-27-29-67t29-68l153-155L87-638q-28-28-30-66t25-65l110-109q27.57-29 67.29-29Q299-907 327-878l156 155 155-155q28-29 67.55-28.5T774-878l104 104q28 28.9 28.5 68.45Q907-666 878-638L724-482l154 155q29 27.57 29 67.29Q907-220 878-192L769-82q-27 27-65.5 25T638-87L483-241Zm32-301.51q13-12.51 13-31.99 0-19.05-12.89-31.78-12.9-12.72-32-12.72Q464-619 451-606.34q-13 12.65-13 31.36 0 19.56 12.89 32.27 12.9 12.71 32 12.71Q502-530 515-542.51ZM304-545l114-113-156-155-111 111 153 157Zm86.02 107q19.56 0 32.27-12.89 12.71-12.9 12.71-32Q435-502 422.49-515t-31.99-13q-19.05 0-31.78 12.89-12.72 12.9-12.72 32Q346-464 358.66-451q12.65 13 31.36 13ZM515-358.66q13-12.65 13-31.36 0-19.56-12.89-32.27-12.9-12.71-32-12.71Q464-435 451-422.49t-13 31.99q0 19.05 12.89 31.78 12.9 12.72 32 12.72Q502-346 515-358.66ZM574.5-438q19.05 0 31.78-12.89 12.72-12.9 12.72-32Q619-502 606.34-515q-12.65-13-31.36-13-19.56 0-32.27 12.89-12.71 12.9-12.71 32Q530-464 542.51-451t31.99 13ZM546-307l156 156 111-111-155-155-112 110ZM341-624Zm283 283Z"/></svg>

<svg xmlns="http://www.w3.org/2000/svg" width="48" height="48" viewBox="0 -960 960 960"><path d="M483-241 327-87q-27.64 29-67.82 29Q219-58 192-87L87-192q-29-27-29-67t29-68l153-155L87-638q-28-28-30-66t25-65l110-109q27.57-29 67.29-29Q299-907 327-878l156 155 155-155q28-29 67.55-28.5T774-878l104 104q28 28.9 28.5 68.45Q907-666 878-638L724-482l154 155q29 27.57 29 67.29Q907-220 878-192L769-82q-27 27-65.5 25T638-87L483-241Zm-.11-289q19.09 0 32.1-12.51Q528-555.02 528-574.5q0-19.05-12.91-31.78Q502.19-619 483.11-619q-19.09 0-32.1 12.66Q438-593.69 438-574.98q0 19.56 12.91 32.27Q463.81-530 482.89-530ZM304-545l114-113-156-155-111 111 153 157Zm86.02 107q19.56 0 32.27-12.91Q435-463.81 435-482.89q0-19.09-12.51-32.1Q409.98-528 390.5-528q-19.05 0-31.78 12.91Q346-502.19 346-483.11q0 19.09 12.66 32.1Q371.31-438 390.02-438Zm92.87 92q19.09 0 32.1-12.66Q528-371.31 528-390.02q0-19.56-12.91-32.27Q502.19-435 483.11-435q-19.09 0-32.1 12.51Q438-409.98 438-390.5q0 19.05 12.91 31.78Q463.81-346 482.89-346Zm91.61-92q19.05 0 31.78-12.91Q619-463.81 619-482.89q0-19.09-12.66-32.1Q593.69-528 574.98-528q-19.56 0-32.27 12.91Q530-502.19 530-483.11q0 19.09 12.51 32.1Q555.02-438 574.5-438ZM546-307l156 156 111-111-155-155-112 110ZM341-624Zm283 283Z"/></svg>
